app/assets/images/icons/active/sight--pin.svg

<svg width="22" height="32" viewBox="0 0 22 32" xmlns="http://www.w3.org/2000/svg" xmlns:sketch="http://www.bohemiancoding.com/sketch/ns"><title>sight--pin</title><g sketch:type="MSLayerGroup" fill="none"><path d="M15.5 29.984c0 1.105-2.016 2-4.5 2-2.486 0-4.5-.895-4.5-2 0-1.104 2.014-2 4.5-2 2.484 0 4.5.896 4.5 2" fill-opacity=".2" fill="#1D508D" sketch:type="MSShapeGroup"/><path d="M10.999.016c6.078 0 11.001 4.362 11.001 10.919 0 6.408-5.551 9.16-8.505 13.257-2.419 3.346-2.496 5.824-2.496 5.824s-.018-2.491-2.492-5.824c-3.041-4.097-8.507-6.661-8.507-13.257 0-6.559 4.925-10.919 10.999-10.919" fill="#FA5E5B" sketch:type="MSShapeGroup"/><path d="M11.063 9.332c-.666 0-1.201.538-1.201 1.201 0 .661.535 1.198 1.201 1.198.661 0 1.198-.537 1.198-1.198 0-.663-.537-1.201-1.198-1.201m0-3.6c-3.982 0-7.207 4.801-7.207 4.801s3.225 4.798 7.207 4.798c3.977 0 7.202-4.798 7.202-4.798s-3.225-4.801-7.202-4.801m0 7.8c-1.659 0-3.003-1.34-3.003-2.999 0-1.656 1.344-3.002 3.003-3.002 1.655 0 2.998 1.346 2.998 3.002 0 1.659-1.343 2.999-2.998 2.999" fill="#fff" sketch:type="MSShapeGroup"/></g></svg>

<?xml version="1.0" encoding="UTF-8" standalone="no"?>
<svg width="22px" height="32px" viewBox="0 0 22 32" version="1.1" xmlns="http://www.w3.org/2000/svg" xmlns:xlink="http://www.w3.org/1999/xlink" xmlns:sketch="http://www.bohemiancoding.com/sketch/ns">
    <title>sight--pin</title>
    <description>Created with Sketch (http://www.bohemiancoding.com/sketch)</description>
    <defs></defs>
    <g id="Points-of-interest" stroke="none" stroke-width="1" fill="none" fill-rule="evenodd" sketch:type="MSPage">
        <g id="sight--pin" sketch:type="MSLayerGroup">
            <path d="M15.5,29.984 C15.5,31.089 13.484,31.984 11,31.984 C8.514,31.984 6.5,31.089 6.5,29.984 C6.5,28.88 8.514,27.984 11,27.984 C13.484,27.984 15.5,28.88 15.5,29.984" id="Fill-1" fill-opacity="0.2" fill="#1D508D" sketch:type="MSShapeGroup"></path>
            <path d="M10.999,0.016 C17.077,0.016 22,4.378 22,10.935 C22,17.343 16.449,20.095 13.495,24.192 C11.076,27.538 10.999,30.016 10.999,30.016 C10.999,30.016 10.981,27.525 8.507,24.192 C5.466,20.095 0,17.531 0,10.935 C0,4.376 4.925,0.016 10.999,0.016" id="Fill-2" fill="#FA5E5B" sketch:type="MSShapeGroup"></path>
            <path d="M11.063,9.332 C10.397,9.332 9.862,9.87 9.862,10.533 C9.862,11.194 10.397,11.731 11.063,11.731 C11.724,11.731 12.261,11.194 12.261,10.533 C12.261,9.87 11.724,9.332 11.063,9.332 M11.063,5.732 C7.081,5.732 3.856,10.533 3.856,10.533 C3.856,10.533 7.081,15.331 11.063,15.331 C15.04,15.331 18.265,10.533 18.265,10.533 C18.265,10.533 15.04,5.732 11.063,5.732 M11.063,13.532 C9.404,13.532 8.06,12.192 8.06,10.533 C8.06,8.877 9.404,7.531 11.063,7.531 C12.718,7.531 14.061,8.877 14.061,10.533 C14.061,12.192 12.718,13.532 11.063,13.532" id="Fill-3" fill="#FFFFFF" sketch:type="MSShapeGroup"></path>
        </g>
    </g>
</svg>
